packages/icons/svg/collapse.svg

<svg fill="none" height="20" viewBox="0 0 20 20" width="20" xmlns="http://www.w3.org/2000/svg"><path clip-rule="evenodd" d="m18 2h-16v16h16zm-16-2c-1.104569 0-2 .895431-2 2v16c0 1.1046.895431 2 2 2h16c1.1046 0 2-.8954 2-2v-16c0-1.104569-.8954-2-2-2zm6.52145 6.14674c.47126.28799.61982.90348.33183 1.37473l-1.65037 2.70063 1.6035 2.1866c.3266.4453.23032 1.0711-.21505 1.3977-.44536.3266-1.07116.2304-1.39776-.215l-2.39651-3.268 2.34963-3.84483c.28799-.47125.90348-.61982 1.37473-.33183zm6.33185 1.37473c.288-.47125.1394-1.08674-.3318-1.37473-.4713-.28799-1.0868-.13942-1.3748.33183l-2.3496 3.84483 2.3965 3.268c.3266.4454.9524.5416 1.3978.215.4453-.3266.5416-.9524.215-1.3977l-1.6035-2.1866z" fill="#3c4858" fill-rule="evenodd"/></svg>

<svg width="20" height="20" viewBox="0 0 20 20" fill="none" xmlns="http://www.w3.org/2000/svg">
<path fill-rule="evenodd" clip-rule="evenodd" d="M18 2H2V18H18V2ZM2 0C0.895431 0 0 0.895431 0 2V18C0 19.1046 0.895431 20 2 20H18C19.1046 20 20 19.1046 20 18V2C20 0.895431 19.1046 0 18 0H2ZM8.52145 6.14674C8.99271 6.43473 9.14127 7.05022 8.85328 7.52147L7.20291 10.2221L8.80641 12.4087C9.13301 12.854 9.03673 13.4798 8.59136 13.8064C8.146 14.133 7.5202 14.0368 7.1936 13.5914L4.79709 10.3234L7.14672 6.47857C7.43471 6.00732 8.0502 5.85875 8.52145 6.14674ZM14.8533 7.52147C15.1413 7.05022 14.9927 6.43473 14.5215 6.14674C14.0502 5.85875 13.4347 6.00732 13.1467 6.47857L10.7971 10.3234L13.1936 13.5914C13.5202 14.0368 14.146 14.133 14.5914 13.8064C15.0367 13.4798 15.133 12.854 14.8064 12.4087L13.2029 10.2221L14.8533 7.52147Z" fill="#3C4858"/>
</svg>
